rospo-icon-theme-classic-common/24x24/apps/feedindicator.svg

<svg height="24" viewBox="0 0 24 24" width="24" xmlns="http://www.w3.org/2000/svg"><circle cx="12" cy="12.5" opacity=".2" r="10"/><path d="m22 12c0 5.522847-4.477153 10-10 10-5.5228475 0-10-4.477153-10-10 0-5.5228475 4.4771525-10 10-10 .11214 0 .318545.8304443.429794.8341072 2.503245.082421 3.637303 1.4636555 5.34764 3.0588668 1.892081 1.764722 3.406488 3.0238185 3.484625 5.796347.002687.095341.737941.214689.737941.310679z" fill="#8e8e8e"/><path d="m22 12s-4.477153 0-10 0v-10c5.522847 0 10 4.4771525 10 10z" fill="#ff9044"/><path d="m12 2a10 10 0 0 0 -10 10 10 10 0 0 0  .01075.291 10 10 0 0 1 9.98925-9.791 10 10 0 0 1 9.9895 9.709 10 10 0 0 0  .0105-.209 10 10 0 0 0 -10-10z" fill="#fff" opacity=".2"/><path d="m12 5.5a7 7 0 0 0 -7 7 7 7 0 0 0 7 7 7 7 0 0 0 7-7 7 7 0 0 0 -7-7zm0 1a6 6 0 0 1 6 6 6 6 0 0 1 -6 6 6 6 0 0 1 -6-6 6 6 0 0 1 6-6z" opacity=".2"/><path d="m12 5a7 7 0 0 0 -7 7 7 7 0 0 0 7 7 7 7 0 0 0 7-7 7 7 0 0 0 -7-7zm0 1a6 6 0 0 1 6 6 6 6 0 0 1 -6 6 6 6 0 0 1 -6-6 6 6 0 0 1 6-6z" fill="#fff"/><circle cx="12" cy="12.5" opacity=".2" r="4"/><circle cx="12" cy="12" fill="#fff" r="4"/><circle cx="12" cy="12" fill="#3f3f3f" r="3"/></svg>

<svg xmlns="http://www.w3.org/2000/svg" width="24" height="24" version="1.1" viewBox="0 0 24 24">
 <circle style="opacity:0.2" cx="12" cy="12.5" r="10"/>
 <path style="fill:#8e8e8e" d="M 22,12 C 22,17.522847 17.522847,22 12,22 6.4771525,22 2,17.522847 2,12 2,6.4771525 6.4771525,2 12,2 c 0.11214,0 0.318545,0.8304443 0.429794,0.8341072 2.503245,0.082421 3.637303,1.4636555 5.34764,3.0588668 1.892081,1.764722 3.406488,3.0238185 3.484625,5.796347 C 21.264746,11.784662 22,11.90401 22,12 Z"/>
 <path style="fill:#ff9044" d="m 22,12 c 0,0 -4.477153,0 -10,0 L 12,2 c 5.522847,0 10,4.4771525 10,10 z"/>
 <path style="opacity:0.2;fill:#ffffff" d="M 12,2 A 10,10 0 0 0 2,12 10,10 0 0 0 2.01075,12.291 10,10 0 0 1 12,2.5 10,10 0 0 1 21.9895,12.209 10,10 0 0 0 22,12 10,10 0 0 0 12,2 Z"/>
 <path d="m 12,5.5 a 7,7 0 0 0 -7,7 7,7 0 0 0 7,7 7,7 0 0 0 7,-7 7,7 0 0 0 -7,-7 z m 0,1 a 6,6 0 0 1 6,6 6,6 0 0 1 -6,6 6,6 0 0 1 -6,-6 6,6 0 0 1 6,-6 z" style="opacity:0.2"/>
 <path style="fill:#ffffff" d="m 12,5 a 7,7 0 0 0 -7,7 7,7 0 0 0 7,7 7,7 0 0 0 7,-7 7,7 0 0 0 -7,-7 z m 0,1 a 6,6 0 0 1 6,6 6,6 0 0 1 -6,6 6,6 0 0 1 -6,-6 6,6 0 0 1 6,-6 z"/>
 <circle style="opacity:0.2" cx="12" cy="12.5" r="4"/>
 <circle cx="12" cy="12" r="4" style="fill:#ffffff"/>
 <circle style="fill:#3f3f3f" cx="12" cy="12" r="3"/>
</svg>
